X: 6058
T: Capecastle Tunnel
R: jig
M: 6/8
K: Eminor
|:~e3 BGE|FAd fed|~e3 BGE|DFA def|
~e3 BGE|FAd fed|edB cAG|1 ~F3 AFd:|2 ~F3 AFD||
|:EGB ~e3|EGB DFA|EGB efg|afd AFD|
EGB ~e3|dFA def|edB cAG|1 ~F3 AFD:|2 ~F3 AFd||

